X:1
T:Jesu, Joy of Man's Desiring
T:Johann Sebastian Bach
T:BWV 0147
%%score ( 1 2 ) ( 3 4 )
L:1/8
Q:1/4=100
M:9/8
K:C
V:1 treble-8 
V:2 treble-8 
V:3 tab stafflines=6 strings=E2,A2,D3,G3,B3,E4 nm="Classical Guitar [Tablature]"
V:4 tab stafflines=6 strings=E2,A2,D3,G3,B3,E4 
V:1
|:"^A" z !0!G!2!A !0!B!4!d!1!c !1!c!0!e!3!d | !3!d!4!g!2!^f !4!g!3!d!0!B G!2!AB | %2
 !1!c!4!d!0!e !4!d!1!c!0!B !1!ABG | !3!^F!0!G!2!A !0!D!4!F!2!A !1!c!0!B!2!A | %4
 !0!B!0!G!2!A !0!B!3!!0!d!1!c !1!c!0!e!3!d | !3!d!4!g!2!^f !4!g!3!d!0!B GAB | %6
 !2!E!4!d!1!c !0!B!2!A!0!G z !0!G!3!^F | !0!G!0!B!3!d !4!g!2!d!0!B !0!G!0!B!4!d | %8
 !0![DGB]6 !3!!1![EGc]3 | !0!!3!!4![DAd]6 [Ad]3 | !3!!1![EGc]6 [GB]3 | %11
 !2!A!0!D!2!E !4!^F!2!A!0!G !1!A!4!c!3!B | !4!c!1!A!3!^F z !3!F!2!A !1!c!0!B!2!A | %13
 !0![DGB]6 !3!!0!!1![EGc]3 | !0!!4![DGd]6 !0![GB]3 | !2!A2 (!0!B/!1!c/) !0!B3 !1!A3 :|3 %16
"^B" !0!G!0!B!3!d !4!g!3!d!0!B !0!G!0!B!1!^c || !1![^Fd]6 !1!!0![^GB]3 | %18
 !2!!3!!1![EAc]3 z3/2 z3/2 !1!c3 | !3![AB]4 z !1!c/!4!d/ !1![^GB]2 z | %20
 !2!A!1!cB !1!ce!3!d !3!d!1!f!0!e | !0!e!4!a^g !4!ae!1!c !3!AB!1!c | %22
 !1!fe!4!d !2!cB!3!A !2!=E!3!A!1!^G | !2!!3!!1![EAc]3 z3 !4![Gd]3 | !1![Gce]6 !4!!1![_Bce]3 | %25
 !1!!3![Ad]4 z !0!e/!1!f/ !3!!0!!4![FGd]3 | [EGc]gf gec !0!G!2!A!4!_B | %27
 !2!A!1!c!0!B !1!c!2!A!3!F !0!D!1!E!3!F | !1!E3 !1!E!0!G!4!^F !0!G!0!B!2!A | %29
 [DGB]6 !3!!0!!1![EGc]3 | !0!!4![Gd]6 !0!!4![Gd]3 | !0!!1![Gc]3 [GB]3 z3 | !2!A3 ^FAG AcB | %33
 cA ^F2 FA cBA | [DGB]6 [EGc]3 | [DGd]6 [GB]3 | A2 B/c/ B3 !1!A3 | %37
 !0!G!0!B!3!d !4!g!3!d!0!B !0!G!0!B!4!d | !1!f!4!d!0!B !0!G!0!B!4!d !0!e!1!c!2!A | %39
 !4!^F!2!A!1!c !4!d!0!B!0!G !2!E!0!G!0!B | !1!c!2!A!4!^F !0!D!4!F!2!A !1!c!0!B!2!A | %41
 !0!BGA Bdc ced | dg^f gdB GAB | cde dcB ABG | ^FGA z FA cBA | BGA Bdc ced | dg^f gdB GAB | %47
 Edc BAG z G^F | G6 |] %49
V:2
|: !3!G,3 !>!!0!G3 !>!!2!E3 | !>!!1!B,3 !>!!2!E3 E,3 | !>!!0!A,3 !>!!2!B,3 !>!!2!C3 | %3
 !>!!4!D3 !1!^F,3 !>!!0!D3 | !>!!3!G,3 !1!E3 !2!C3 | !1!B,3 !1!E3 D3 | !3!C3 !4!^C3 !4!D3 | %7
 !2!G,3 !1!B,3 !0!D2 !1!B, | !3!G,3 !2!^F,3 !0!E,3 | !2!^F,3 E,3 [F,D]3 | E,3 !2!^F,3 !3![G,D]3 | %11
 !1!^F,3 !0!A,3 !0!D3 | !0!D3 !4!D3 !0!D3 | !3!G,3 !2!^F,3 !0!E,3 | !2!B,3 !0!E,3 !2!E3 | %15
 !3!C3 !0!D3 !0!D3 :|3 !2!G,3 !1!B,3 !0!D3 || !3!D3 !3!C3 !2!!0![B,D]3 | %18
 !0!A,3 !3!A3/2!0!G3/2 !3!F3/2!2!E3/2 | D3 !2!B,3 !2!E2 z | A,3 !2!F3 D3 | !1!C3 !1!F3 E3 | %22
 D3 !1!_E3 E,3 | !0!A,!4!C!2!E !3!A3 !2![B,D]3 | !3!C3 !0!A,3 !2!E3 | !2!F3 !0!D3 !2!B,3 | %26
 C3 E3 !3!C3 | !3!F3 !0!D3 !2!G,3 | !2!C!2!C!0!D !2!C3 !1!B,3 | !3!G,3 !2!^F,3 !0!E,3 | %30
 !2!!0![B,D]3 !3!E3 !0!!2![E,B,]3 | !0!A,3 !2![B,D]3 !3!C3 | !1!^F,!0!D!2!E A,3 D3 | D3 D3 D3 | %34
 G,3 ^F,3 E,3 | B,3 E,3 E3 | C3 D3 !3!C3 | !2!G,3 !1!B,3 !3!G,3 | !0!D3 !2!B,3 !3!C3 | %39
 !0!A,3 !2!B,3 !3!G,3 | !0!A,3 !1!^F,3 !0!D3 | !3!G,3 E,3 C3 | B,3 E3 E,3 | A,3 B,3 C3 | D3 D3 D3 | %45
 G,3 E,3 C3 | B,3 E3 D3 | C3 ^C3 D3 | [G,B,D]6 |] %49
V:3
|: x !3!G,!3!A, !2!B,!2!D!2!C !2!C!1!E!2!D | !2!D!1!G!1!^F !1!G!2!D!2!B, !3!G,!3!A,!2!B, | %2
 !2!C!2!D!1!E !2!D!2!C!2!B, !3!A,!2!B,!3!G, | !4!^F,!3!G,!3!A, !4!D,!4!F,!3!A, !2!C!2!B,!3!A, | %4
 !2!B,!3!G,!3!A, !2!B,!2!D!2!C !2!C!1!E!2!D | !2!D!1!G!1!^F !1!G!2!D!2!B, !3!G,!3!A,!2!B, | %6
 !4!E,!2!D!2!C !2!B,!3!A,!3!G, x !3!G,!4!^F, | !3!G,!2!B,!2!D !1!G!2!D!2!B, !3!G,!2!B,!2!D | %8
 [!4!D,!3!G,!2!B,]6 [!4!E,!3!G,!2!C]3 | [!4!D,!3!A,!2!D]6 [!3!A,!2!D]3 | %10
 [!4!E,!3!G,!2!C]6 [!3!G,!2!B,]3 | !3!A,!4!D,!4!E, !4!^F,!3!A,!3!G, !3!A,!3!C!3!B, | %12
 !3!C!3!A,!4!^F, x !4!F,!3!A, !2!C!2!B,!3!A, | [!4!D,!3!G,!2!B,]6 [!4!E,!3!G,!2!C]3 | %14
 [!4!D,!3!G,!2!D]6 [!3!G,!2!B,]3 | !3!A,2 (!2!B,/!2!C/) !2!B,3 !3!A,3 :|3 %16
 !3!G,!2!B,!2!D !1!G!2!D!2!B, !3!G,!2!B,!2!^C || [!4!^F,!2!D]6 [!3!^G,!2!B,]3 | %18
 [!4!E,!3!A,!2!C]3 x3/2 x3/2 !2!C3 | [!3!A,!2!B,]4 x !2!C/!2!D/ [!3!^G,!2!B,]2 x | %20
 !3!A,!2!C!2!B, !2!C!1!E!2!D !2!D!1!F!1!E | !1!E!1!A!1!^G !1!A!1!E!2!C !3!A,!2!B,!2!C | %22
 !1!F!1!E!2!D !2!C!2!B,!3!A, !4!=E,!3!A,!3!^G, | [!4!E,!3!A,!2!C]3 x3 [!3!G,!2!D]3 | %24
 [!3!G,!2!C!1!E]6 [!3!_B,!2!C!1!E]3 | [!3!A,!2!D]4 x !1!E/!1!F/ [!4!F,!3!G,!2!D]3 | %26
 [!4!E,!3!G,!2!C]!1!G!1!F !1!G!1!E!2!C !3!G,!3!A,!3!_B, | %27
 !3!A,!2!C!2!B, !2!C!3!A,!4!F, !4!D,!4!E,!4!F, | !4!E,3 !4!E,!3!G,!4!^F, !3!G,!2!B,!3!A, | %29
 [!4!D,!3!G,!2!B,]6 [!4!E,!3!G,!2!C]3 | [!3!G,!2!D]6 [!3!G,!2!D]3 | [!3!G,!2!C]3 [!3!G,!2!B,]3 x3 | %32
 !3!A,3 !4!^F,!3!A,!3!G, !3!A,!2!C!2!B, | !2!C!3!A, !4!^F,2 !4!F,!3!A, !2!C!2!B,!3!A, | %34
 [!4!D,!3!G,!2!B,]6 [!4!E,!3!G,!2!C]3 | [!4!D,!3!G,!2!D]6 [!3!G,!2!B,]3 | %36
 !3!A,2 !2!B,/!2!C/ !2!B,3 !3!A,3 | !3!G,!2!B,!2!D !1!G!2!D!2!B, !3!G,!2!B,!2!D | %38
 !1!F!2!D!2!B, !3!G,!2!B,!2!D !1!E!2!C!3!A, | !4!^F,!3!A,!2!C !2!D!2!B,!3!G, !4!E,!3!G,!2!B, | %40
 !2!C!3!A,!4!^F, !4!D,!4!F,!3!A, !2!C!2!B,!3!A, | !2!B,!3!G,!3!A, !2!B,!2!D!2!C !2!C!1!E!2!D | %42
 !2!D!1!G!1!^F !1!G!2!D!2!B, !3!G,!3!A,!2!B, | !2!C!2!D!1!E !2!D!2!C!2!B, !3!A,!2!B,!3!G, | %44
 !4!^F,!3!G,!3!A, x !4!F,!3!A, !2!C!2!B,!3!A, | !2!B,!3!G,!3!A, !2!B,!2!D!2!C !2!C!1!E!2!D | %46
 !2!D!1!G!1!^F !1!G!2!D!2!B, !3!G,!3!A,!2!B, | !4!E,!2!D!2!C !2!B,!3!A,!3!G, x !3!G,!4!^F, | %48
 !3!G,6 |] %49
V:4
|: !6!G,,3 !>!!3!G,3 !>!!4!E,3 | !>!!5!B,,3 !>!!4!E,3 !6!E,,3 | !>!!5!A,,3 !>!!5!B,,3 !>!!5!C,3 | %3
 !>!!5!D,3 !6!^F,,3 !>!!4!D,3 | !>!!6!G,,3 !4!E,3 !5!C,3 | !5!B,,3 !4!E,3 !4!D,3 | %6
 !5!C,3 !5!^C,3 !5!D,3 | !6!G,,3 !5!B,,3 !4!D,2 !5!B,, | !6!G,,3 !6!^F,,3 !6!E,,3 | %9
 !6!^F,,3 !6!E,,3 [!6!F,,!4!D,]3 | !6!E,,3 !6!^F,,3 [!6!G,,!4!D,]3 | !6!^F,,3 !5!A,,3 !4!D,3 | %12
 !4!D,3 !5!D,3 !4!D,3 | !6!G,,3 !6!^F,,3 !6!E,,3 | !5!B,,3 !6!E,,3 !4!E,3 | %15
 !5!C,3 !4!D,3 !4!D,3 :|3 !6!G,,3 !5!B,,3 !4!D,3 || !5!D,3 !5!C,3 [!5!B,,!4!D,]3 | %18
 !5!A,,3 !3!A,3/2!3!G,3/2 !4!F,3/2!4!E,3/2 | !4!D,3 !5!B,,3 !4!E,2 x | !5!A,,3 !4!F,3 !4!D,3 | %21
 !5!C,3 !4!F,3 !4!E,3 | !4!D,3 !4!_E,3 !6!E,,3 | !5!A,,!5!C,!4!E, !3!A,3 [!5!B,,!4!D,]3 | %24
 !5!C,3 !5!A,,3 !4!E,3 | !4!F,3 !4!D,3 !5!B,,3 | !5!C,3 !4!E,3 !5!C,3 | !4!F,3 !4!D,3 !6!G,,3 | %28
 !5!C,!5!C,!4!D, !5!C,3 !5!B,,3 | !6!G,,3 !6!^F,,3 !6!E,,3 | %30
 [!5!B,,!4!D,]3 !4!E,3 [!6!E,,!5!B,,]3 | !5!A,,3 [!5!B,,!4!D,]3 !5!C,3 | %32
 !6!^F,,!4!D,!4!E, !5!A,,3 !4!D,3 | !4!D,3 !4!D,3 !4!D,3 | !6!G,,3 !6!^F,,3 !6!E,,3 | %35
 !5!B,,3 !6!E,,3 !4!E,3 | !5!C,3 !4!D,3 !5!C,3 | !6!G,,3 !5!B,,3 !6!G,,3 | !4!D,3 !5!B,,3 !5!C,3 | %39
 !5!A,,3 !5!B,,3 !6!G,,3 | !5!A,,3 !6!^F,,3 !4!D,3 | !6!G,,3 !6!E,,3 !5!C,3 | %42
 !5!B,,3 !4!E,3 !6!E,,3 | !5!A,,3 !5!B,,3 !5!C,3 | !5!D,3 !5!D,3 !4!D,3 | !6!G,,3 !6!E,,3 !5!C,3 | %46
 !5!B,,3 !4!E,3 !4!D,3 | !5!C,3 !5!^C,3 !5!D,3 | [!6!G,,!5!B,,!4!D,]6 |] %49

